Newaita-dark/.places-ubuntu/64/folder-music.svg

<?xml version="1.0" encoding="UTF-8"?>
<svg xmlns="http://www.w3.org/2000/svg" xmlns:xlink="http://www.w3.org/1999/xlink" width="64px" height="64px" viewBox="0 0 64 64" version="1.1">
<defs>
<linearGradient id="linear0" gradientUnits="userSpaceOnUse" x1="254" y1="233.5" x2="254" y2="254.666672" gradientTransform="matrix(0.125012,0,0,0.125012,-0.00000763012,26.877574)">
<stop offset="0" style="stop-color:rgb(0%,0%,0%);stop-opacity:0.27451;"/>
<stop offset="1" style="stop-color:rgb(0%,0%,0%);stop-opacity:0;"/>
</linearGradient>
<radialGradient id="radial0" gradientUnits="userSpaceOnUse" cx="450.908936" cy="189.579361" fx="450.908936" fy="189.579361" r="21.166656" gradientTransform="matrix(0.000000348341,-0.156265,-0.281277,-0.000000203077,108.230425,127.190669)">
<stop offset="0" style="stop-color:rgb(0%,0%,0%);stop-opacity:0.313726;"/>
<stop offset="0.222222" style="stop-color:rgb(0%,0%,0%);stop-opacity:0.27451;"/>
<stop offset="1" style="stop-color:rgb(0%,0%,0%);stop-opacity:0;"/>
</radialGradient>
<radialGradient id="radial1" gradientUnits="userSpaceOnUse" cx="450.908936" cy="189.579361" fx="450.908936" fy="189.579361" r="21.166656" gradientTransform="matrix(-0.000000348341,0.156265,0.281277,0.000000203077,-44.724356,-15.054954)">
<stop offset="0" style="stop-color:rgb(0%,0%,0%);stop-opacity:0.313726;"/>
<stop offset="0.222222" style="stop-color:rgb(0%,0%,0%);stop-opacity:0.27451;"/>
<stop offset="1" style="stop-color:rgb(0%,0%,0%);stop-opacity:0;"/>
</radialGradient>
<radialGradient id="radial2" gradientUnits="userSpaceOnUse" cx="450.908936" cy="189.579361" fx="450.908936" fy="189.579361" r="21.166656" gradientTransform="matrix(-0.000000348341,-0.156265,0.281277,-0.000000203077,-44.724356,127.190669)">
<stop offset="0" style="stop-color:rgb(0%,0%,0%);stop-opacity:0.313726;"/>
<stop offset="0.222222" style="stop-color:rgb(0%,0%,0%);stop-opacity:0.27451;"/>
<stop offset="1" style="stop-color:rgb(0%,0%,0%);stop-opacity:0;"/>
</radialGradient>
<radialGradient id="radial3" gradientUnits="userSpaceOnUse" cx="450.908936" cy="189.579361" fx="450.908936" fy="189.579361" r="21.166656" gradientTransform="matrix(0.000000348341,0.156265,-0.281277,0.000000203077,108.230422,-15.054955)">
<stop offset="0" style="stop-color:rgb(0%,0%,0%);stop-opacity:0.313726;"/>
<stop offset="0.222222" style="stop-color:rgb(0%,0%,0%);stop-opacity:0.27451;"/>
<stop offset="1" style="stop-color:rgb(0%,0%,0%);stop-opacity:0;"/>
</radialGradient>
<linearGradient id="linear1" gradientUnits="userSpaceOnUse" x1="254" y1="-147.5" x2="254" y2="-31.083334" gradientTransform="matrix(0.125012,0,0,0.125012,0.00000249951,26.877563)">
<stop offset="0" style="stop-color:rgb(64.313728%,64.313728%,64.313728%);stop-opacity:0;"/>
<stop offset="1" style="stop-color:rgb(100%,100%,100%);stop-opacity:0.196078;"/>
</linearGradient>
<linearGradient id="linear2" gradientUnits="userSpaceOnUse" x1="254" y1="233.5" x2="254" y2="-105.166656" gradientTransform="matrix(0.125012,0,0,0.125012,-0.00000362479,26.877566)">
<stop offset="0" style="stop-color:rgb(34.509805%,34.509805%,34.509805%);stop-opacity:0;"/>
<stop offset="1" style="stop-color:rgb(98.039216%,98.039216%,98.039216%);stop-opacity:0.196078;"/>
</linearGradient>
</defs>
<g id="surface1">
<path style=" stroke:none;fill-rule:nonzero;fill:url(#linear0);" d="M 7.9375 56.066406 L 55.566406 56.066406 L 55.566406 58.714844 L 7.9375 58.714844 Z M 7.9375 56.066406 "/>
<path style=" stroke:none;fill-rule:nonzero;fill:url(#radial0);" d="M 55.566406 56.066406 L 60.859375 56.066406 L 60.859375 53.421875 L 55.566406 53.421875 Z M 55.566406 56.066406 "/>
<path style=" stroke:none;fill-rule:nonzero;fill:url(#radial1);" d="M 7.9375 56.066406 L 2.644531 56.066406 L 2.644531 58.714844 L 7.9375 58.714844 Z M 7.9375 56.066406 "/>
<path style=" stroke:none;fill-rule:nonzero;fill:url(#radial2);" d="M 7.9375 56.066406 L 2.644531 56.066406 L 2.644531 53.421875 L 7.9375 53.421875 Z M 7.9375 56.066406 "/>
<path style=" stroke:none;fill-rule:nonzero;fill:url(#radial3);" d="M 55.566406 56.066406 L 60.859375 56.066406 L 60.859375 58.714844 L 55.566406 58.714844 Z M 55.566406 56.066406 "/>
<path style=" stroke:none;fill-rule:nonzero;fill:rgb(98.431373%,52.549022%,25.882354%);fill-opacity:1;" d="M 14.554688 8.4375 L 57.550781 8.4375 C 59.015625 8.4375 60.199219 9.621094 60.199219 11.085938 L 60.199219 21.007812 C 60.199219 22.46875 59.015625 23.652344 57.550781 23.652344 L 14.554688 23.652344 C 13.09375 23.652344 11.90625 22.46875 11.90625 21.007812 L 11.90625 11.085938 C 11.90625 9.621094 13.09375 8.4375 14.554688 8.4375 Z M 14.554688 8.4375 "/>
<path style=" stroke:none;fill-rule:nonzero;fill:url(#linear1);" d="M 14.554688 8.4375 L 57.550781 8.4375 C 59.015625 8.4375 60.199219 9.621094 60.199219 11.085938 L 60.199219 21.007812 C 60.199219 22.46875 59.015625 23.652344 57.550781 23.652344 L 14.554688 23.652344 C 13.09375 23.652344 11.90625 22.46875 11.90625 21.007812 L 11.90625 11.085938 C 11.90625 9.621094 13.09375 8.4375 14.554688 8.4375 Z M 14.554688 8.4375 "/>
<path style=" stroke:none;fill-rule:nonzero;fill:rgb(90.196079%,90.196079%,90.196079%);fill-opacity:0.392157;" d="M 14.554688 8.613281 C 13.085938 8.613281 11.90625 9.792969 11.90625 11.261719 L 11.90625 11.589844 C 11.90625 10.125 13.085938 8.945312 14.554688 8.945312 L 57.550781 8.945312 C 59.019531 8.945312 60.199219 10.125 60.199219 11.589844 L 60.199219 11.261719 C 60.199219 9.792969 59.019531 8.613281 57.550781 8.613281 Z M 14.554688 8.613281 "/>
<path style=" stroke:none;fill-rule:nonzero;fill:rgb(12.941177%,12.941177%,12.941177%);fill-opacity:1;" d="M 14.554688 8.25 C 12.988281 8.25 11.71875 9.519531 11.71875 11.085938 L 11.71875 21.007812 C 11.71875 22.574219 12.988281 23.839844 14.554688 23.839844 L 57.550781 23.839844 C 59.117188 23.839844 60.386719 22.574219 60.386719 21.007812 L 60.386719 11.085938 C 60.386719 9.519531 59.117188 8.25 57.550781 8.25 Z M 14.554688 8.625 L 57.550781 8.625 C 58.917969 8.625 60.011719 9.71875 60.011719 11.085938 L 60.011719 21.007812 C 60.011719 22.371094 58.917969 23.464844 57.550781 23.464844 L 14.554688 23.464844 C 13.1875 23.464844 12.09375 22.371094 12.09375 21.007812 L 12.09375 11.085938 C 12.09375 9.71875 13.1875 8.625 14.554688 8.625 Z M 14.554688 8.625 "/>
<path style=" stroke:none;fill-rule:nonzero;fill:rgb(98.823529%,64.313728%,40.784314%);fill-opacity:1;" d="M 5.292969 13.730469 C 3.828125 13.730469 2.644531 14.910156 2.644531 16.375 L 2.644531 53.421875 C 2.644531 54.886719 3.828125 56.066406 5.292969 56.066406 L 58.214844 56.066406 C 59.679688 56.066406 60.859375 54.886719 60.859375 53.421875 L 60.859375 20.34375 L 25.136719 20.34375 C 23.671875 20.34375 22.492188 19.164062 22.492188 17.699219 L 22.492188 13.730469 Z M 5.292969 13.730469 "/>
<path style=" stroke:none;fill-rule:nonzero;fill:url(#linear2);" d="M 5.292969 13.730469 C 3.828125 13.730469 2.644531 14.910156 2.644531 16.375 L 2.644531 53.421875 C 2.644531 54.886719 3.828125 56.066406 5.292969 56.066406 L 58.214844 56.066406 C 59.679688 56.066406 60.859375 54.886719 60.859375 53.421875 L 60.859375 20.34375 L 25.136719 20.34375 C 23.671875 20.34375 22.492188 19.164062 22.492188 17.699219 L 22.492188 13.730469 Z M 5.292969 13.730469 "/>
<path style=" stroke:none;fill-rule:nonzero;fill:rgb(0%,0%,0%);fill-opacity:0.196078;" d="M 5.292969 56.066406 C 3.828125 56.066406 2.644531 54.886719 2.644531 53.421875 L 2.644531 53.089844 C 2.644531 54.558594 3.828125 55.738281 5.292969 55.738281 L 58.214844 55.738281 C 59.679688 55.738281 60.859375 54.558594 60.859375 53.089844 L 60.859375 53.421875 C 60.859375 54.886719 59.679688 56.066406 58.214844 56.066406 Z M 5.292969 56.066406 "/>
<path style=" stroke:none;fill-rule:nonzero;fill:rgb(90.196079%,90.196079%,90.196079%);fill-opacity:0.392157;" d="M 5.292969 13.894531 C 3.828125 13.894531 2.644531 15.074219 2.644531 16.542969 L 2.644531 16.871094 C 2.644531 15.40625 3.828125 14.226562 5.292969 14.226562 L 22.492188 14.226562 L 22.492188 13.894531 Z M 5.292969 13.894531 "/>
<path style=" stroke:none;fill-rule:nonzero;fill:rgb(90.196079%,90.196079%,90.196079%);fill-opacity:0.392157;" d="M 24.972656 20.675781 C 23.507812 20.675781 22.328125 19.496094 22.328125 18.03125 L 22.328125 17.699219 C 22.328125 19.164062 23.507812 20.347656 24.972656 20.347656 L 60.859375 20.347656 L 60.859375 20.675781 Z M 24.972656 20.675781 "/>
<path style=" stroke:none;fill-rule:nonzero;fill:rgb(12.941177%,12.941177%,12.941177%);fill-opacity:1;" d="M 5.292969 13.542969 C 3.726562 13.542969 2.457031 14.808594 2.457031 16.375 L 2.457031 53.421875 C 2.457031 54.988281 3.726562 56.253906 5.292969 56.253906 L 58.214844 56.253906 C 59.78125 56.253906 61.046875 54.988281 61.046875 53.421875 L 61.046875 19.96875 L 25.136719 19.96875 C 23.773438 19.96875 22.679688 18.878906 22.679688 17.511719 L 22.679688 13.542969 Z M 5.292969 13.917969 L 22.304688 13.917969 L 22.304688 17.511719 C 22.304688 19.078125 23.570312 20.34375 25.136719 20.34375 L 60.671875 20.34375 L 60.671875 53.421875 C 60.671875 54.785156 59.578125 55.878906 58.214844 55.878906 L 5.292969 55.878906 C 3.925781 55.878906 2.832031 54.785156 2.832031 53.421875 L 2.832031 16.375 C 2.832031 15.011719 3.925781 13.917969 5.292969 13.917969 Z M 5.292969 13.917969 "/>
<path style=" stroke:none;fill-rule:nonzero;fill:rgb(95.294118%,39.215687%,20.392157%);fill-opacity:1;" d="M 39.933594 25.589844 C 39.78125 25.59375 39.632812 25.625 39.492188 25.675781 L 28.90625 29.644531 C 28.371094 29.847656 28.015625 30.359375 28.015625 30.929688 L 28.015625 40.449219 C 27.488281 40.28125 26.910156 40.191406 26.300781 40.191406 C 23.859375 40.191406 21.890625 41.667969 21.890625 43.5 C 21.890625 45.332031 23.859375 46.804688 26.300781 46.804688 C 28.445312 46.804688 30.757812 45.484375 30.761719 43.5 L 30.761719 31.878906 L 38.601562 28.941406 L 38.601562 37.617188 C 38.332031 37.570312 38.054688 37.546875 37.769531 37.546875 C 35.8125 37.546875 34.238281 38.726562 34.238281 40.191406 C 34.238281 41.65625 35.8125 42.835938 37.769531 42.835938 C 39.691406 42.835938 41.34375 41.84375 41.34375 40.191406 L 41.34375 26.960938 C 41.34375 26.1875 40.707031 25.566406 39.933594 25.589844 Z M 39.933594 25.589844 "/>
<path style=" stroke:none;fill-rule:nonzero;fill:rgb(0%,0%,0%);fill-opacity:0.235294;" d="M 40.003906 25.589844 C 39.980469 25.589844 39.957031 25.589844 39.933594 25.589844 C 39.78125 25.59375 39.632812 25.625 39.492188 25.675781 L 28.90625 29.644531 C 28.371094 29.847656 28.015625 30.359375 28.015625 30.929688 L 28.015625 31.472656 C 28.015625 30.902344 28.371094 30.390625 28.90625 30.191406 L 39.492188 26.21875 C 39.632812 26.167969 39.78125 26.136719 39.933594 26.132812 C 40.707031 26.109375 41.34375 26.730469 41.34375 27.503906 L 41.34375 26.960938 C 41.34375 26.210938 40.746094 25.605469 40.003906 25.589844 Z M 37.769531 37.546875 C 35.8125 37.546875 34.238281 38.726562 34.238281 40.191406 C 34.238281 40.285156 34.246094 40.375 34.257812 40.464844 C 34.4375 39.125 35.9375 38.089844 37.769531 38.089844 C 38.054688 38.089844 38.332031 38.117188 38.601562 38.164062 L 38.601562 37.617188 C 38.332031 37.570312 38.054688 37.546875 37.769531 37.546875 Z M 26.300781 40.191406 C 23.859375 40.191406 21.890625 41.667969 21.890625 43.5 C 21.890625 43.589844 21.898438 43.679688 21.90625 43.769531 C 22.089844 42.066406 23.980469 40.734375 26.300781 40.734375 C 26.910156 40.734375 27.488281 40.828125 28.015625 40.992188 L 28.015625 40.449219 C 27.488281 40.28125 26.910156 40.191406 26.300781 40.191406 Z M 26.300781 40.191406 "/>
<path style=" stroke:none;fill-rule:nonzero;fill:rgb(100%,100%,100%);fill-opacity:0.392157;" d="M 38.601562 29.105469 L 30.761719 32.046875 L 30.761719 32.375 L 38.601562 29.4375 Z M 41.34375 40.355469 C 41.34375 42.011719 39.691406 43.003906 37.769531 43.003906 C 35.886719 43.003906 34.359375 41.910156 34.246094 40.523438 C 34.242188 40.578125 34.238281 40.632812 34.238281 40.6875 C 34.238281 42.152344 35.8125 43.332031 37.769531 43.332031 C 39.691406 43.332031 41.34375 42.339844 41.34375 40.6875 Z M 30.761719 43.664062 C 30.757812 45.652344 28.445312 46.972656 26.300781 46.972656 C 23.933594 46.972656 22.011719 45.585938 21.898438 43.828125 C 21.894531 43.882812 21.890625 43.941406 21.890625 43.996094 C 21.890625 45.828125 23.859375 47.300781 26.300781 47.300781 C 28.445312 47.300781 30.757812 45.980469 30.761719 43.996094 Z M 30.761719 43.664062 "/>
<path style="fill:none;stroke-width:2.5;stroke-linecap:round;stroke-linejoin:round;stroke:rgb(12.941177%,12.941177%,12.941177%);stroke-opacity:1;stroke-miterlimit:4;" d="M 319.438245 -10.300798 C 318.219612 -10.269551 317.032225 -10.019575 315.907332 -9.613363 L 231.227919 22.133605 C 226.947078 23.75845 224.103599 27.851809 224.103599 32.413873 L 224.103599 108.562851 C 219.885252 107.21923 215.260694 106.500548 210.386159 106.500548 C 190.856774 106.500548 175.108278 118.31192 175.108278 132.966771 C 175.108278 147.621621 190.856774 159.401746 210.386159 159.401746 C 227.540771 159.401746 246.039004 148.840255 246.070251 132.966771 L 246.070251 40.006898 L 308.783013 16.509142 L 308.783013 85.908765 C 306.626969 85.5338 304.40843 85.346318 302.127398 85.346318 C 286.472643 85.346318 273.880096 94.782917 273.880096 106.500548 C 273.880096 118.218179 286.472643 127.654778 302.127398 127.654778 C 317.50093 127.654778 330.718418 119.718036 330.718418 106.500548 L 330.718418 0.666905 C 330.718418 -5.520004 325.625154 -10.48828 319.438245 -10.300798 Z M 319.438245 -10.300798 " transform="matrix(0.125012,0,0,0.125012,0,26.877566)"/>
</g>
</svg>

<svg xmlns="http://www.w3.org/2000/svg" width="64pt" height="64pt" viewBox="0 0 64 64"><defs><linearGradient id="a" gradientUnits="userSpaceOnUse" x1="254" y1="233.5" x2="254" y2="254.667" gradientTransform="translate(0 26.878) scale(.12501)"><stop offset="0" stop-opacity=".275"/><stop offset="1" stop-opacity="0"/></linearGradient><radialGradient id="b" gradientUnits="userSpaceOnUse" cx="450.909" cy="189.579" fx="450.909" fy="189.579" r="21.167" gradientTransform="matrix(0 -.15626 -.28128 0 108.23 127.19)"><stop offset="0" stop-opacity=".314"/><stop offset=".222" stop-opacity=".275"/><stop offset="1" stop-opacity="0"/></radialGradient><radialGradient id="c" gradientUnits="userSpaceOnUse" cx="450.909" cy="189.579" fx="450.909" fy="189.579" r="21.167" gradientTransform="matrix(0 .15626 .28128 0 -44.724 -15.055)"><stop offset="0" stop-opacity=".314"/><stop offset=".222" stop-opacity=".275"/><stop offset="1" stop-opacity="0"/></radialGradient><radialGradient id="d" gradientUnits="userSpaceOnUse" cx="450.909" cy="189.579" fx="450.909" fy="189.579" r="21.167" gradientTransform="matrix(0 -.15626 .28128 0 -44.724 127.19)"><stop offset="0" stop-opacity=".314"/><stop offset=".222" stop-opacity=".275"/><stop offset="1" stop-opacity="0"/></radialGradient><radialGradient id="e" gradientUnits="userSpaceOnUse" cx="450.909" cy="189.579" fx="450.909" fy="189.579" r="21.167" gradientTransform="matrix(0 .15626 -.28128 0 108.23 -15.055)"><stop offset="0" stop-opacity=".314"/><stop offset=".222" stop-opacity=".275"/><stop offset="1" stop-opacity="0"/></radialGradient><linearGradient id="f" gradientUnits="userSpaceOnUse" x1="254" y1="-147.5" x2="254" y2="-31.083" gradientTransform="translate(0 26.878) scale(.12501)"><stop offset="0" stop-color="#a4a4a4" stop-opacity="0"/><stop offset="1" stop-color="#fff" stop-opacity=".196"/></linearGradient><linearGradient id="g" gradientUnits="userSpaceOnUse" x1="254" y1="233.5" x2="254" y2="-105.167" gradientTransform="translate(0 26.878) scale(.12501)"><stop offset="0" stop-color="#585858" stop-opacity="0"/><stop offset="1" stop-color="#fafafa" stop-opacity=".196"/></linearGradient><linearGradient id="h" gradientUnits="userSpaceOnUse" x1="254" y1="-147.5" x2="254" y2="233.5" gradientTransform="translate(0 26.878) scale(.12501)"><stop offset="0" stop-color="#a4a4a4" stop-opacity="0"/><stop offset="1" stop-color="#fff" stop-opacity=".196"/></linearGradient></defs><path d="M7.938 56.066h47.628v2.649H7.937zm0 0" fill="url(#a)"/><path d="M55.566 56.066h5.293v-2.644h-5.293zm0 0" fill="url(#b)"/><path d="M7.938 56.066H2.644v2.649h5.292zm0 0" fill="url(#c)"/><path d="M7.938 56.066H2.644v-2.644h5.292zm0 0" fill="url(#d)"/><path d="M55.566 56.066h5.293v2.649h-5.293zm0 0" fill="url(#e)"/><path d="M14.555 8.438H57.55a2.646 2.646 0 0 1 2.648 2.648v9.922a2.645 2.645 0 0 1-2.648 2.644H14.555a2.647 2.647 0 0 1-2.649-2.644v-9.922a2.648 2.648 0 0 1 2.649-2.649zm0 0" fill="#6e3d62"/><path d="M14.555 8.438H57.55a2.646 2.646 0 0 1 2.648 2.648v9.922a2.645 2.645 0 0 1-2.648 2.644H14.555a2.647 2.647 0 0 1-2.649-2.644v-9.922a2.648 2.648 0 0 1 2.649-2.649zm0 0" fill="url(#f)"/><path d="M14.555 8.438a2.64 2.64 0 0 0-2.649 2.648v.328a2.64 2.64 0 0 1 2.649-2.644H57.55a2.64 2.64 0 0 1 2.648 2.644v-.328a2.64 2.64 0 0 0-2.648-2.649zm0 0" fill="#e6e6e6" fill-opacity=".588"/><path d="M14.555 8.25a2.836 2.836 0 0 0-2.836 2.836v9.922a2.832 2.832 0 0 0 2.836 2.832H57.55a2.832 2.832 0 0 0 2.836-2.832v-9.922A2.836 2.836 0 0 0 57.55 8.25zm0 .375H57.55a2.45 2.45 0 0 1 2.46 2.46v9.923a2.45 2.45 0 0 1-2.46 2.457H14.555a2.45 2.45 0 0 1-2.461-2.457v-9.922a2.45 2.45 0 0 1 2.46-2.461zm0 0" fill="#212121"/><path d="M5.293 13.73a2.642 2.642 0 0 0-2.648 2.645v37.047a2.642 2.642 0 0 0 2.648 2.644h52.922a2.639 2.639 0 0 0 2.644-2.644V20.344H25.137a2.639 2.639 0 0 1-2.645-2.645V13.73zm0 0" fill="#e46d43"/><path d="M5.293 13.73a2.642 2.642 0 0 0-2.648 2.645v37.047a2.642 2.642 0 0 0 2.648 2.644h52.922a2.639 2.639 0 0 0 2.644-2.644V20.344H25.137a2.639 2.639 0 0 1-2.645-2.645V13.73zm0 0" fill="url(#g)"/><path d="M5.293 56.066a2.642 2.642 0 0 1-2.648-2.644v-.332a2.643 2.643 0 0 0 2.648 2.648h52.922a2.64 2.64 0 0 0 2.644-2.648v.332a2.639 2.639 0 0 1-2.644 2.644zm0 0" fill-opacity=".196"/><path d="M5.293 13.73a2.642 2.642 0 0 0-2.648 2.645v.332a2.642 2.642 0 0 1 2.648-2.645h17.2v-.332zm0 0M24.973 20.512a2.64 2.64 0 0 1-2.645-2.649v-.328a2.637 2.637 0 0 0 2.645 2.645h35.886v.332zm0 0" fill="#e6e6e6" fill-opacity=".937"/><path d="M5.293 13.543a2.832 2.832 0 0 0-2.836 2.832v37.047a2.832 2.832 0 0 0 2.836 2.832h52.922a2.83 2.83 0 0 0 2.832-2.832V19.969h-35.91a2.447 2.447 0 0 1-2.457-2.457v-3.969zm0 .375h17.012v3.594a2.83 2.83 0 0 0 2.832 2.832h35.535v33.078a2.449 2.449 0 0 1-2.457 2.457H5.293a2.45 2.45 0 0 1-2.461-2.457V16.375a2.45 2.45 0 0 1 2.461-2.457zm0 0" fill="#212121"/><path d="M29.105 25.684c-.73 0-1.32.687-1.32 1.539v13.199a4.716 4.716 0 0 0-1.324-.188c-2.2 0-3.969 1.477-3.969 3.309s1.77 3.309 3.969 3.309c2.2 0 3.969-1.477 3.969-3.309v-14.55c0-.368.297-.665.66-.665h6.617a.66.66 0 0 1 .66.664v7.461a4.71 4.71 0 0 0-1.32-.187c-2.2 0-3.973 1.476-3.973 3.308 0 1.832 1.774 3.309 3.973 3.309 2.2 0 3.969-1.477 3.969-3.309V27.223c0-.852-.59-1.54-1.325-1.54zm0 0" fill="#6e3d62"/><path d="M29.105 25.684c-.73 0-1.32.687-1.32 1.539v13.199a4.716 4.716 0 0 0-1.324-.188c-2.2 0-3.969 1.477-3.969 3.309s1.77 3.309 3.969 3.309c2.2 0 3.969-1.477 3.969-3.309v-14.55c0-.368.297-.665.66-.665h6.617a.66.66 0 0 1 .66.664v7.461a4.71 4.71 0 0 0-1.32-.187c-2.2 0-3.973 1.476-3.973 3.308 0 1.832 1.774 3.309 3.973 3.309 2.2 0 3.969-1.477 3.969-3.309V27.223c0-.852-.59-1.54-1.325-1.54zm0 0" fill="url(#h)"/><path d="M29.105 25.496c-.847 0-1.507.79-1.507 1.727V40.19a4.923 4.923 0 0 0-1.137-.144c-2.281 0-4.156 1.543-4.156 3.496s1.875 3.496 4.156 3.496c2.281 0 4.156-1.543 4.156-3.496v-14.55c0-.27.207-.477.473-.477h6.617c.266 0 .473.207.473.476v7.23a4.862 4.862 0 0 0-1.133-.144c-2.285 0-4.16 1.543-4.16 3.496s1.875 3.496 4.16 3.496c2.281 0 4.156-1.543 4.156-3.496V27.223c0-.938-.66-1.727-1.512-1.727zm0 .375h10.586c.618 0 1.137.586 1.137 1.352v12.351c0 1.711-1.668 3.121-3.781 3.121-2.117 0-3.785-1.41-3.785-3.12 0-1.712 1.668-3.122 3.785-3.122.445 0 .871.067 1.27.18l.238.07v-7.71a.85.85 0 0 0-.848-.852H31.09a.853.853 0 0 0-.848.851v14.551c0 1.71-1.668 3.121-3.781 3.121-2.113 0-3.781-1.41-3.781-3.121s1.668-3.121 3.78-3.121c.446 0 .876.066 1.27.18l.243.07v-13.45c0-.765.52-1.35 1.132-1.35zm0 0" fill="#212121"/></svg>
